omega/mobile/images/sports/inplay.svg

<svg height="5.68889in" viewBox="0 0 512 512" width="5.68889in" xmlns="http://www.w3.org/2000/svg"><path d="m212 24.85c25.8 1.27 51.51 6.66 76 14.82 102.54 34.15 180.52 124.69 198.41 231.33 0 0 3.68 33 3.68 33s.91 10 .91 10c.05 4.75.71 12.02-2.51 15.77-3.96 4.64-12.31 4.26-15.75-.83-1.87-2.76-1.72-5.77-1.74-8.94v-4s-.91-10-.91-10c-1.18-17.11-3.55-33.33-7.72-50-26.04-104.17-111.06-185.34-216.37-206.4-12.01-2.4-23.81-3.85-36-4.69 0 0-10-.91-10-.91-3.62-.04-9.85.48-12.96-1.17-6.78-3.62-7.06-13.66.98-17.98 7.88-2.03 16.05-.25 23.98 0zm3 58.88s33 5.06 33 5.06c69.17 14.92 128.32 63.35 159.75 126.21 11.99 23.98 23.81 61.12 24.25 88 .13 8.05 4.71 25.61-6.02 28.57-5.82 1.61-11.65-1.5-12.75-7.57 0 0-2.51-31-2.51-31-2.79-20.73-8.5-39.81-16.72-59-24.43-57-74.56-100.87-133-120.33-15.27-5.09-38.99-10.48-55-10.67-4.5-.05-13.19.6-16.97-1.31-7.97-4.03-7.41-13.67 0-17.96 6.15-1.5 19.47-.79 25.97 0zm12 59.39c56.06 12.92 105.62 52 130.74 103.88 9.6 19.82 18.74 49.94 19.26 72 .17 7.42 4.08 21.75-6.02 24.57-4.97 1.39-10.8-.33-12.47-5.61 0 0-1.93-22.96-1.93-22.96-2.49-18.19-6.19-34.2-13.89-51-23.34-50.97-65.15-87.18-119.69-100.87-8.98-2.26-23.89-5.02-33-5.13-4.78-.05-10.68.61-14.79-2.23-6.61-4.56-4.98-13.29 1.81-17.03 11.6-2.83 37.93 1.6 49.98 4.38zm-5 54.55c17.45 5.81 32.99 14.31 47 26.33 53.1 45.59 66.33 122.28 31.57 183-8.22 14.37-19.04 26.96-31.57 37.72-12.67 10.87-27.35 19.22-43 24.96-11.29 4.14-23.01 7.01-35 8.28h-9c-3.15.34-4.69.97-8 .72 0 0-29-3.13-29-3.13-21.95-4.41-46.13-16.19-63-30.84-20.47-17.77-35.07-38.97-43.65-64.71-18.96-56.95.63-123.65 48.65-160.1 17.99-13.66 39.64-23.71 62-27.47 0 0 17-2.01 17-2.01 16.49-2 40.24 2 56 7.25zm29 38.13c-15.38-12.14-34.72-20.33-54-23.72-4.22-.74-19.56-2.79-22.96-1.48-2.81 1.08-5.11 4.18-7.09 6.4-4.83 5.4-9.31 11.1-13.52 17-16.98 23.76-36.25 61.07-21.43 90 0 0 37-24.95 37-24.95 24.95-15.83 68.44-39.49 96-49.05-2.95-6.24-8.69-10-14-14.2zm-157 4.95c-4.54 3.8-14.36 12.77-16.12 18.25-.8 1.92.09 12.78 0 16 .34 17.97 5.76 37.83 13.44 54 0 0 10.68 19 10.68 19 3.42-2 16.39-11.66 17.19-15.09.55-2.33-3.27-10.94-4.15-13.91-2.47-8.31-2.05-12.6-2.04-21 .03-21.18 12.5-46.64 24-64 0 0 15-21 15-21-20.01 1.68-42.91 15.13-58 27.75zm150 32.94c-24.4 11.17-48.62 24.13-71 38.98-8.21 5.45-26.28 16.47-32 23.33 14.63 13.4 32.93 19.19 52 23 26.45 5.29 53.13 6.04 80 6 0 0 23-1 23-1 5.17-25.72 4.49-51.38-5.45-76-3.91-9.67-9.49-17.99-14.55-27-8.2 1.29-23.91 8.99-32 12.69zm-191.21 44.31c-.68 3.25-1.55 11.76 0 14.47 0 0 14.21 10.42 14.21 10.42s16.42 15.95 16.42 15.95c2.21 2.03 4.87 3.16 6.85 0 1.53-2.46-.01-4.72-1.29-6.84 0 0-8.22-14-8.22-14-9.15-17.99-15.74-38.66-15.76-59-6.55 9.04-10.82 27.85-12.21 39zm58.21 41c5.19 8.18 15.05 18.05 22 25 16.8 16.79 35.69 31.78 55 45.58 0 0 19 13.28 19 13.28 2.6 1.85 8.04 5.93 11 6.54 5.22 1.08 19.29-7.29 24-10.21 19.12-11.86 43.75-38.83 49-61.19 0 0-35 1-35 1s-15-1-15-1c-16.33-.03-34.96-2.37-51-5.6-22.14-4.46-43.68-12.23-60-28.4 0 0-19 15-19 15zm-56.35 3c2.37 10.34 4.49 15.34 8.35 25 2.67-2.2 11.7-10.97 12.09-14 .36-2.73-2.71-6.07-4.38-8-5.09-5.9-10.47-10.41-16.71-15-1.56 4.07-.3 7.86.65 12zm41.58 13c-.21 2.47 3.76 9.49 5.02 12 3.97 7.96 6.83 15.46 9.33 24 0 0 5.22 22 5.22 22 .57 2.87 1.09 8.51 2.8 10.61 2.7 3.32 14.05 7.29 18.4 8.72 18.55 6.1 29 5.89 48 5.67 4.92-.06 11.61-.76 16-3-25.29-16.86-49.74-35.35-72-56.09 0 0-28-29.91-28-29.91-2.09 1.57-4.52 3.1-4.77 6zm-24.36 25c-.48 3.15 3.43 7.59 5.26 10 5.84 7.68 16.85 18.63 24.87 24-3.17-16.85-8.49-34.05-17-49-3.52 2.52-12.48 10.7-13.13 15z"/></svg>

<?xml version="1.0" encoding="UTF-8" standalone="no"?>
<!DOCTYPE svg PUBLIC "-//W3C//DTD SVG 20010904//EN"
              "http://www.w3.org/TR/2001/REC-SVG-20010904/DTD/svg10.dtd">

<svg xmlns="http://www.w3.org/2000/svg"
     width="5.68889in" height="5.68889in"
     viewBox="0 0 512 512">
  <path id="Selection"
        fill="black"
        d="M 212.00,24.85
           C 237.80,26.12 263.51,31.51 288.00,39.67
             390.54,73.82 468.52,164.36 486.41,271.00
             486.41,271.00 490.09,304.00 490.09,304.00
             490.09,304.00 491.00,314.00 491.00,314.00
             491.05,318.75 491.71,326.02 488.49,329.77
             484.53,334.41 476.18,334.03 472.74,328.94
             470.87,326.18 471.02,323.17 471.00,320.00
             471.00,320.00 471.00,316.00 471.00,316.00
             471.00,316.00 470.09,306.00 470.09,306.00
             468.91,288.89 466.54,272.67 462.37,256.00
             436.33,151.83 351.31,70.66 246.00,49.60
             233.99,47.20 222.19,45.75 210.00,44.91
             210.00,44.91 200.00,44.00 200.00,44.00
             196.38,43.96 190.15,44.48 187.04,42.83
             180.26,39.21 179.98,29.17 188.02,24.85
             195.90,22.82 204.07,24.60 212.00,24.85 Z
           M 215.00,83.73
           C 215.00,83.73 248.00,88.79 248.00,88.79
             317.17,103.71 376.32,152.14 407.75,215.00
             419.74,238.98 431.56,276.12 432.00,303.00
             432.13,311.05 436.71,328.61 425.98,331.57
             420.16,333.18 414.33,330.07 413.23,324.00
             413.23,324.00 410.72,293.00 410.72,293.00
             407.93,272.27 402.22,253.19 394.00,234.00
             369.57,177.00 319.44,133.13 261.00,113.67
             245.73,108.58 222.01,103.19 206.00,103.00
             201.50,102.95 192.81,103.60 189.03,101.69
             181.06,97.66 181.62,88.02 189.03,83.73
             195.18,82.23 208.50,82.94 215.00,83.73 Z
           M 227.00,143.12
           C 283.06,156.04 332.62,195.12 357.74,247.00
             367.34,266.82 376.48,296.94 377.00,319.00
             377.17,326.42 381.08,340.75 370.98,343.57
             366.01,344.96 360.18,343.24 358.51,337.96
             358.51,337.96 356.58,315.00 356.58,315.00
             354.09,296.81 350.39,280.80 342.69,264.00
             319.35,213.03 277.54,176.82 223.00,163.13
             214.02,160.87 199.11,158.11 190.00,158.00
             185.22,157.95 179.32,158.61 175.21,155.77
             168.60,151.21 170.23,142.48 177.02,138.74
             188.62,135.91 214.95,140.34 227.00,143.12 Z
           M 222.00,197.67
           C 239.45,203.48 254.99,211.98 269.00,224.00
             322.10,269.59 335.33,346.28 300.57,407.00
             292.35,421.37 281.53,433.96 269.00,444.72
             256.33,455.59 241.65,463.94 226.00,469.68
             214.71,473.82 202.99,476.69 191.00,477.96
             191.00,477.96 182.00,477.96 182.00,477.96
             178.85,478.30 177.31,478.93 174.00,478.68
             174.00,478.68 145.00,475.55 145.00,475.55
             123.05,471.14 98.87,459.36 82.00,444.71
             61.53,426.94 46.93,405.74 38.35,380.00
             19.39,323.05 38.98,256.35 87.00,219.90
             104.99,206.24 126.64,196.19 149.00,192.43
             149.00,192.43 166.00,190.42 166.00,190.42
             182.49,188.42 206.24,192.42 222.00,197.67 Z
           M 251.00,235.80
           C 235.62,223.66 216.28,215.47 197.00,212.08
             192.78,211.34 177.44,209.29 174.04,210.60
             171.23,211.68 168.93,214.78 166.95,217.00
             162.12,222.40 157.64,228.10 153.43,234.00
             136.45,257.76 117.18,295.07 132.00,324.00
             132.00,324.00 169.00,299.05 169.00,299.05
             193.95,283.22 237.44,259.56 265.00,250.00
             262.05,243.76 256.31,240.00 251.00,235.80 Z
           M 94.00,240.75
           C 89.46,244.55 79.64,253.52 77.88,259.00
             77.08,260.92 77.97,271.78 77.88,275.00
             78.22,292.97 83.64,312.83 91.32,329.00
             91.32,329.00 102.00,348.00 102.00,348.00
             105.42,346.00 118.39,336.34 119.19,332.91
             119.74,330.58 115.92,321.97 115.04,319.00
             112.57,310.69 112.99,306.40 113.00,298.00
             113.03,276.82 125.50,251.36 137.00,234.00
             137.00,234.00 152.00,213.00 152.00,213.00
             131.99,214.68 109.09,228.13 94.00,240.75 Z
           M 244.00,273.69
           C 219.60,284.86 195.38,297.82 173.00,312.67
             164.79,318.12 146.72,329.14 141.00,336.00
             155.63,349.40 173.93,355.19 193.00,359.00
             219.45,364.29 246.13,365.04 273.00,365.00
             273.00,365.00 296.00,364.00 296.00,364.00
             301.17,338.28 300.49,312.62 290.55,288.00
             286.64,278.33 281.06,270.01 276.00,261.00
             267.80,262.29 252.09,269.99 244.00,273.69 Z
           M 52.79,318.00
           C 52.11,321.25 51.24,329.76 52.79,332.47
             52.79,332.47 67.00,342.89 67.00,342.89
             67.00,342.89 83.42,358.84 83.42,358.84
             85.63,360.87 88.29,362.00 90.27,358.84
             91.80,356.38 90.26,354.12 88.98,352.00
             88.98,352.00 80.76,338.00 80.76,338.00
             71.61,320.01 65.02,299.34 65.00,279.00
             58.45,288.04 54.18,306.85 52.79,318.00 Z
           M 111.00,359.00
           C 116.19,367.18 126.05,377.05 133.00,384.00
             149.80,400.79 168.69,415.78 188.00,429.58
             188.00,429.58 207.00,442.86 207.00,442.86
             209.60,444.71 215.04,448.79 218.00,449.40
             223.22,450.48 237.29,442.11 242.00,439.19
             261.12,427.33 285.75,400.36 291.00,378.00
             291.00,378.00 256.00,379.00 256.00,379.00
             256.00,379.00 241.00,378.00 241.00,378.00
             224.67,377.97 206.04,375.63 190.00,372.40
             167.86,367.94 146.32,360.17 130.00,344.00
             130.00,344.00 111.00,359.00 111.00,359.00 Z
           M 54.65,362.00
           C 57.02,372.34 59.14,377.34 63.00,387.00
             65.67,384.80 74.70,376.03 75.09,373.00
             75.45,370.27 72.38,366.93 70.71,365.00
             65.62,359.10 60.24,354.59 54.00,350.00
             52.44,354.07 53.70,357.86 54.65,362.00 Z
           M 96.23,375.00
           C 96.02,377.47 99.99,384.49 101.25,387.00
             105.22,394.96 108.08,402.46 110.58,411.00
             110.58,411.00 115.80,433.00 115.80,433.00
             116.37,435.87 116.89,441.51 118.60,443.61
             121.30,446.93 132.65,450.90 137.00,452.33
             155.55,458.43 166.00,458.22 185.00,458.00
             189.92,457.94 196.61,457.24 201.00,455.00
             175.71,438.14 151.26,419.65 129.00,398.91
             129.00,398.91 101.00,369.00 101.00,369.00
             98.91,370.57 96.48,372.10 96.23,375.00 Z
           M 71.87,400.00
           C 71.39,403.15 75.30,407.59 77.13,410.00
             82.97,417.68 93.98,428.63 102.00,434.00
             98.83,417.15 93.51,399.95 85.00,385.00
             81.48,387.52 72.52,395.70 71.87,400.00 Z" />
</svg>
